assets/logos/color_logo/pcengine.svg

<?xml version="1.0" encoding="UTF-8"?>
<svg width="432px" height="174px" viewBox="0 0 432 174" version="1.1" xmlns="http://www.w3.org/2000/svg" xmlns:xlink="http://www.w3.org/1999/xlink">
    <title>mainlogo</title>
    <g id="Page-1" stroke="none" stroke-width="1" fill="none" fill-rule="evenodd">
        <g id="mainlogo">
            <rect id="Rectangle" x="0" y="0" width="432" height="174"></rect>
            <g id="Group-31">
                <g id="Group-35" transform="translate(2.000000, 1.531174)">
                    <path d="M37.6042641,141.319171 C15.6943859,135.082374 1.86839745,125.35629 0.175861913,112.898965 C-2.62409154,92.3653136 28.2411613,69.7008687 76.2505127,53.2395008" id="path22" stroke="#EB222C" stroke-width="3.07891553" stroke-linecap="round" stroke-linejoin="round"></path>
                    <path d="M161.204913,34.0038069 C179.052909,31.7303326 196.288634,30.5438322 212.422331,30.3542437" id="path24" stroke="#EB222C" stroke-width="3.07891553" stroke-linecap="round" stroke-linejoin="round"></path>
                    <path d="M228.8014,30.6899502 C281.251778,32.4978689 318.706321,45.6775624 321.730191,66.6464996 C325.869802,95.3083829 264.207777,128.228033 181.687187,142.550456" id="path26" stroke="#EB222C" stroke-width="3.07891553" stroke-linecap="round" stroke-linejoin="round"></path>
                    <polyline id="path28" fill="#EB222C" fill-rule="nonzero" points="196.763003 60.0632974 231.412131 22.4917363 187.704936 49.5492025 172.067669 38.1264063 179.640364 56.4401934 144.990726 94.0113977 188.697871 66.9485807 204.334782 78.3718865 196.763003 60.0632974"></polyline>
                    <path d="M99.9111126,60.7973527 L100.073098,43.3292132 L111.534423,39.3797225 C113.03766,38.8623149 113.983612,39.6044109 113.964217,41.2902876 L113.85592,53.2446873 C113.837441,54.9357619 112.876108,56.3303781 111.37287,56.8477856 L99.9111126,60.7973527 Z M242.498888,85.6287557 L242.666942,67.7669581 C242.720955,62.1182787 247.652088,55.7092302 252.519934,54.029991 L273.580855,46.7759432 C277.128848,45.5522982 280.383379,49.1816752 280.342089,53.3042083 L280.260059,59.0574263 C280.219125,63.1794499 276.891035,68.1401333 273.343399,69.3632687 L251.482228,76.8991107 L251.513636,78.9744238 C251.492438,81.3466426 253.332129,82.8690721 255.376374,82.1624779 L279.810468,73.7267765 L279.724436,83.1453025 L252.159524,92.642657 C247.367237,94.2953068 242.603239,91.3762504 242.500251,85.8918487 L242.498888,85.6287557 Z M183.198495,77.9187702 L192.003347,74.8892306 L191.641995,113.501616 L182.640084,116.601544 L182.995871,77.9955883 L183.198495,77.9187702 Z M131.057969,134.378598 L122.049347,137.478458 L122.283294,112.406655 C122.315275,109.264777 121.220076,108.43868 118.368804,109.421564 L102.674461,114.833399 L102.4039,144.249288 L93.3964083,147.355559 L93.7517117,108.744329 L123.841641,98.3743206 C128.362132,96.8148379 131.383395,99.1896716 131.335245,104.268757 L131.057969,134.378598 Z M86.1228045,139.780696 L86.0293897,149.891908 L48.3682596,162.869284 L48.9854311,95.7574145 L80.0984125,85.0368482 L80.0135335,94.2314091 L57.9090975,101.851682 L57.73167,121.157302 L75.7419074,114.950777 L75.6561883,124.140573 L57.6463077,130.346589 L57.4641809,149.658486 L86.1228045,139.780696 Z M86.1913525,132.423638 L64.9039068,139.758272 L64.9444292,135.16785 L82.1360211,129.24011 L82.3589583,105.336892 L65.1672901,111.264198 L65.2066592,106.667236 L86.493519,99.3318125 L86.1913525,132.423638 Z M137.542524,139.471987 L137.547699,138.667989 C138.158164,138.606752 139.006322,138.697978 139.692044,138.465766 L157.398946,132.400669 C157.36303,136.153472 152.725279,137.909156 145.606973,140.359042 L137.506189,143.154028 L137.274571,167.973075 L147.918743,164.308305 C174.408833,156.894282 182.209192,141.151661 182.570586,123.958278 L214.500695,112.952852 L214.77112,83.5361831 L217.368578,82.6386967 C220.157656,81.6759442 219.708695,81.2219485 219.664892,84.1607572 L219.413539,111.260319 L242.336993,103.360838 L242.355816,101.575463 C244.274003,102.046083 246.404105,101.958118 248.543317,101.22272 L288.187845,87.5614487 L288.381656,66.4186287 L285.406124,65.0022398 C287.219427,61.8865992 288.418618,58.2517274 288.445059,55.3747851 L288.518039,52.0322872 C288.424274,39.598105 276.726993,38.3542463 271.78663,40.0578848 L249.035314,47.8976247 C245.006626,49.2877625 240.951171,52.9805336 238.305703,57.3925338 C234.699117,54.8922337 229.749203,54.545736 227.068831,55.4694547 L201.742021,64.1970017 L205.795321,70.1299424 L228.64168,62.2618315 C231.934712,61.1246796 234.435651,62.0785233 235.529104,64.6525934 L235.521344,64.7362221 C235.390049,66.7197407 235.039431,98.5452837 235.039431,98.5452837 L226.849175,101.367302 L227.082493,76.2894013 C227.108919,73.1489496 226.014484,72.3271839 223.168486,73.3095844 L207.474067,78.7209858 L207.198384,108.138224 L198.196182,111.244099 L198.50678,77.5643161 L189.296762,69.9144573 L163.597901,84.6754825 L176.242272,80.3177449 L176.446958,80.2526222 L176.022478,126.214812 C175.912614,137.894364 165.754296,150.829335 155.354031,154.41585 L144.710352,158.080881 L144.800701,148.884417 L152.896992,146.096878 C160.014137,143.640408 166.965583,134.859124 167.035337,126.944056 L167.083626,121.964545 L146.000817,129.228706 C141.480697,130.787765 138.458008,128.407377 138.507508,123.333413 L138.706932,101.725957 C138.73924,97.8868316 140.514479,94.3906742 143.336281,92.2401353 L143.288585,91.6732853 L152.693524,81.3806821 L146.526227,83.5704267 C143.237909,84.7013878 137.41362,88.3424948 134.324745,94.1279079 C130.678182,91.0665428 125.159202,90.5854593 122.27478,91.5804413 L99.5511864,99.415293 L99.7499932,78.2653395 L116.328568,72.5515426 C125.154086,69.5125529 133.399533,57.5302398 133.493505,47.6248264 L133.624798,33.3742646 C133.717701,23.4627869 125.639177,17.1082872 116.813303,20.1477864 L80.5830702,32.6326588 L80.1755193,76.7632696 L46.8138091,88.2617698 C43.9902092,89.2344148 41.6694973,92.598079 41.642557,95.7685455 L40.9809833,167.020872 C40.9540004,170.190987 43.2210893,171.977449 46.0451911,171.005118 L109.701454,149.064798 L109.977502,119.647093 L112.895195,118.636072 C115.379869,117.742556 114.894743,117.446359 114.863625,120.462635 L114.613804,147.371995 L137.542524,139.471987 Z M251.572106,67.3048274 L251.563772,68.4201932 L268.595013,62.550652 C269.93762,62.0847927 271.039074,60.4488538 271.056689,58.8865782 C271.068479,57.3252955 269.9912,56.4361897 268.64895,56.9015395 L264.270693,58.4064648 L257.292938,60.8150423 L255.523325,61.4200623 C253.540606,62.1053186 251.707714,64.7644832 251.579121,67.088047 L251.572106,67.3048274 Z M146.847209,103.942257 L146.740882,115.47469 C146.709818,118.621766 147.804177,119.443098 150.655806,118.459705 L167.167647,112.770181 L167.354043,92.5478335 L150.840929,98.2326692 C147.9893,99.2160626 146.873076,100.796097 146.847209,103.942257 Z M153.346947,106.994057 C153.421026,104.143857 154.483232,104.282467 157.110185,103.40589 L159.918856,102.440861 L159.872863,107.033185 L157.281036,107.929678 C154.49637,108.890098 153.369476,109.880229 153.346947,106.994057 Z" id="Shape" fill="#EB222C" fill-rule="nonzero"></path>
                    <path d="M176.676445,55.4214907 L172.426198,45.9475543 L171.046346,46.3668318 L171.02347,48.8916474 C171.009442,50.6408924 169.888116,52.2629167 168.335318,52.8006754 L158.919182,56.0438524 C157.366308,56.581178 156.270196,55.7195111 156.28509,53.9701133 L156.537701,26.8486036 C156.552722,25.1049897 157.673105,23.482685 159.225979,22.9453593 L168.642981,19.7020296 C170.194913,19.1644236 171.291535,20.0264473 171.275724,21.7706471 L171.240081,25.2235787 L190.278009,18.6598721 L190.31688,14.5261531 C190.411105,4.09277815 182.189401,-2.37716384 172.893178,0.821644439 L154.679247,7.09892288 C145.389572,10.3019362 136.988644,22.4992495 136.893911,32.9322677 L136.624992,61.8914106 C136.529902,72.3249383 144.752038,78.794804 154.047345,75.5907977 L160.137731,73.4967945 L176.676445,55.4214907" id="path32" fill="#EB222C" fill-rule="nonzero"></path>
                    <path d="M189.504759,46.992887 C189.774537,45.5263731 190.03451,44.94145 190.047962,43.4852961 L190.08435,39.8035584 L182.50767,42.4173411 L189.504759,46.992887" id="path34" fill="#EB222C" fill-rule="nonzero"></path>
                </g>
                <g id="NEC_logo_1963" transform="translate(0.987571, 0.000000)" fill="#EB222C" fill-rule="nonzero">
                    <path d="M24.6615642,1.05434533 L43.0036542,1.05434533 L41.7872992,8.023874 C41.7872992,8.023874 41.2473894,4.2456047 38.9898845,2.76699213 C38.4294485,2.50455123 36.9935376,2.52269484 33.3952382,2.52269484 L31.9866343,10.833018 C34.8557072,11.5076304 38.0374366,7.13593673 38.0374366,7.13593673 L36.2074978,16.7995166 C36.2074978,16.7995166 35.0849764,12.4239743 31.5695146,12.5691232 L30.0100805,21.1651623 C35.1302438,21.1651623 35.0309121,21.1292416 36.2679765,20.3732579 C37.4616061,19.6440314 40.248941,16.0530628 40.3541373,15.5501732 L39.2171378,22.7528198 L20.6754681,22.7528198 C20.8129197,21.793591 22.6194001,21.6905939 23.4277988,21.1402378 L24.9445312,12.7793325 C24.8222909,12.0319624 23.3557741,12.6757856 23.0581456,12.0341616 C23.3099569,11.3470869 24.7845376,11.7975616 25.2126535,11.3016362 L26.7515615,2.81867393 C26.4768415,2.17741645 24.6615642,1.86329375 24.6615642,1.05434533 Z" id="Path"></path>
                    <path d="M59.2639939,0.401908448 C60.0711097,2.06708864 60.7200644,3.89611113 61.310923,5.78561231 C60.189318,6.22069241 58.6342824,6.92774339 58.6342824,6.92774339 L55.6820055,2.82600468 C52.6069386,2.58537277 48.4513188,7.16525974 48.1366463,10.0270018 C47.7686426,13.4127094 49.8747675,16.7569982 53.1748885,17.042531 C56.6128277,17.3414424 60.7325267,14.4324169 60.7325267,14.4324169 L56.9537076,22.7528198 C49.1600192,25.5258598 43.3929171,20.4350195 43.0978543,14.4324169 C42.6451804,5.26879434 50.9379097,0.218273124 59.2639939,0.401908448 Z" id="Path"></path>
                    <path d="M16.6435548,12.4241576 L19.3086495,0 L24.379147,3.11556937 L20.3259745,5.50612741 L16.6514354,23.417719 L4.79980951,10.0797832 L3.17659787,18.3386078 L6.05978242,20.7170701 L0,23.417719 L2.94421305,9.46894838 C3.26493343,7.36135734 1.80758004,6.63561294 0.524698535,6.20034958 L5.71615344,0.218639662 L16.6435548,12.4241576 Z" id="Path"></path>
                </g>
            </g>
        </g>
    </g>
</svg>

<?xml version="1.0" encoding="UTF-8" standalone="no"?>
<svg
   xmlns:dc="http://purl.org/dc/elements/1.1/"
   xmlns:cc="http://creativecommons.org/ns#"
   xmlns:rdf="http://www.w3.org/1999/02/22-rdf-syntax-ns#"
   xmlns:svg="http://www.w3.org/2000/svg"
   xmlns="http://www.w3.org/2000/svg"
   xmlns:sodipodi="http://sodipodi.sourceforge.net/DTD/sodipodi-0.dtd"
   xmlns:inkscape="http://www.inkscape.org/namespaces/inkscape"
   width="500"
   height="200"
   viewBox="0 0 500 200"
   version="1.1"
   id="svg72"
   sodipodi:docname="pcengine.svg"
   inkscape:version="0.92.5 (2060ec1f9f, 2020-04-08)">
  <metadata
     id="metadata78">
    <rdf:RDF>
      <cc:Work
         rdf:about="">
        <dc:format>image/svg+xml</dc:format>
        <dc:type
           rdf:resource="http://purl.org/dc/dcmitype/StillImage" />
        <dc:title>mainlogo</dc:title>
      </cc:Work>
    </rdf:RDF>
  </metadata>
  <defs
     id="defs76" />
  <sodipodi:namedview
     pagecolor="#ffffff"
     bordercolor="#666666"
     borderopacity="1"
     objecttolerance="10"
     gridtolerance="10"
     guidetolerance="10"
     inkscape:pageopacity="0"
     inkscape:pageshadow="2"
     inkscape:window-width="1366"
     inkscape:window-height="740"
     id="namedview74"
     showgrid="false"
     inkscape:pagecheckerboard="true"
     inkscape:zoom="1.3519965"
     inkscape:cx="216"
     inkscape:cy="87"
     inkscape:window-x="0"
     inkscape:window-y="0"
     inkscape:window-maximized="1"
     inkscape:current-layer="svg72" />
  <title
     id="title52">mainlogo</title>
  <g
     id="Page-1"
     style="fill:none;fill-rule:evenodd;stroke:none;stroke-width:1"
     transform="matrix(0.95205993,0,0,0.94898987,85.05939,8.2484751)">
    <g
       id="mainlogo">
      <rect
         id="Rectangle"
         x="0"
         y="0"
         width="432"
         height="174" />
      <g
         id="Group-31">
        <g
           id="Group-35"
           transform="translate(2,1.531174)">
          <path
             d="M 37.604264,141.31917 C 15.694386,135.08237 1.8683975,125.35629 0.17586191,112.89897 -2.6240915,92.365314 28.241161,69.700869 76.250513,53.239501"
             id="path22"
             inkscape:connector-curvature="0"
             style="stroke:#eb222c;stroke-width:3.0789156;stroke-linecap:round;stroke-linejoin:round" />
          <path
             d="m 161.20491,34.003807 c 17.848,-2.273474 35.08372,-3.459975 51.21742,-3.649563"
             id="path24"
             inkscape:connector-curvature="0"
             style="stroke:#eb222c;stroke-width:3.0789156;stroke-linecap:round;stroke-linejoin:round" />
          <path
             d="m 228.8014,30.68995 c 52.45038,1.807919 89.90492,14.987612 92.92879,35.95655 4.13961,28.661883 -57.52241,61.58153 -140.043,75.90396"
             id="path26"
             inkscape:connector-curvature="0"
             style="stroke:#eb222c;stroke-width:3.0789156;stroke-linecap:round;stroke-linejoin:round" />
          <polyline
             id="path28"
             points="196.763003 60.0632974 231.412131 22.4917363 187.704936 49.5492025 172.067669 38.1264063 179.640364 56.4401934 144.990726 94.0113977 188.697871 66.9485807 204.334782 78.3718865 196.763003 60.0632974"
             style="fill:#eb222c;fill-rule:nonzero" />
          <path
             d="m 99.911113,60.797353 0.161987,-17.46814 11.46132,-3.949491 c 1.50324,-0.517407 2.44919,0.224689 2.4298,1.910566 l -0.1083,11.954399 c -0.0185,1.691075 -0.97981,3.085691 -2.48305,3.603099 z m 142.587777,24.831403 0.16805,-17.861798 c 0.054,-5.648679 4.98515,-12.057728 9.85299,-13.736967 l 21.06092,-7.254048 c 3.548,-1.223645 6.80253,2.405732 6.76124,6.528265 l -0.082,5.753218 c -0.0409,4.122024 -3.36903,9.082707 -6.91666,10.305843 l -21.86117,7.535842 0.0314,2.075313 c -0.0212,2.372219 1.81849,3.894648 3.86273,3.188054 l 24.4341,-8.435702 -0.086,9.418526 -27.56492,9.497355 c -4.79228,1.65265 -9.55628,-1.266407 -9.65927,-6.750808 z m -59.3004,-7.709986 8.80486,-3.029539 -0.36136,38.612389 -9.00191,3.09992 0.35579,-38.605952 z m -52.14052,56.45983 -9.00862,3.09986 0.23394,-25.0718 c 0.032,-3.14188 -1.06321,-3.96798 -3.91449,-2.9851 l -15.69434,5.41184 -0.27056,29.41589 -9.007492,3.10627 0.355304,-38.61123 30.089928,-10.370009 c 4.52049,-1.559483 7.54175,0.815351 7.4936,5.894439 z m -44.935166,5.4021 -0.09341,10.11121 -37.66113,12.97737 0.617171,-67.111866 31.112981,-10.720566 -0.08488,9.194561 -22.104435,7.620271 -0.177428,19.30562 18.010237,-6.20652 -0.08572,9.18979 -18.00988,6.20602 -0.182127,19.3119 z m 0.06855,-7.35706 -21.287445,7.33463 0.04052,-4.59042 17.191592,-5.92774 0.222937,-23.90322 -17.191668,5.92731 0.03937,-4.59696 21.28686,-7.335428 z m 51.351166,7.04835 0.005,-0.804 c 0.61046,-0.0612 1.45862,0.03 2.14434,-0.20222 l 17.70691,-6.0651 c -0.0359,3.7528 -4.67367,5.50849 -11.79198,7.95837 l -8.10078,2.79499 -0.23162,24.81904 10.64417,-3.66477 c 26.49009,-7.41402 34.29045,-23.15664 34.65185,-40.35002 l 31.9301,-11.00543 0.27043,-29.416667 2.59746,-0.897486 c 2.78908,-0.962753 2.34011,-1.416749 2.29631,1.52206 l -0.25135,27.099563 22.92345,-7.89948 0.0188,-1.78538 c 1.91818,0.47062 4.04828,0.38266 6.1875,-0.35274 l 39.64452,-13.661271 0.19382,-21.14282 -2.97554,-1.416389 c 1.81331,-3.115641 3.0125,-6.750513 3.03894,-9.627455 l 0.073,-3.342498 C 288.42427,39.598105 276.72699,38.354246 271.78663,40.057885 l -22.75132,7.83974 c -4.02868,1.390137 -8.08414,5.082909 -10.72961,9.494909 -3.60658,-2.5003 -8.5565,-2.846798 -11.23687,-1.923079 l -25.32681,8.727547 4.0533,5.93294 22.84636,-7.868111 c 3.29303,-1.137151 5.79397,-0.183308 6.88742,2.390762 l -0.008,0.08363 c -0.13129,1.983519 -0.48191,33.809062 -0.48191,33.809062 l -8.19026,2.822015 0.23332,-25.077898 c 0.0264,-3.140451 -1.06801,-3.962217 -3.914,-2.979817 l -15.69442,5.411402 -0.27569,29.417233 -9.0022,3.10588 0.3106,-33.679783 -9.21002,-7.649859 -25.69886,14.761025 12.64437,-4.357737 0.20469,-0.06512 -0.42448,45.962184 c -0.10987,11.67955 -10.26818,24.61452 -20.66845,28.20104 l -10.64368,3.66503 0.0904,-9.19646 8.09629,-2.78754 c 7.11715,-2.45647 14.06859,-11.23776 14.13835,-19.15282 l 0.0483,-4.97951 -21.08281,7.26416 c -4.52012,1.55905 -7.54281,-0.82133 -7.49331,-5.8953 l 0.19942,-21.60745 c 0.0323,-3.839124 1.80755,-7.335282 4.62935,-9.485821 l -0.0477,-0.56685 9.40494,-10.292603 -6.16729,2.189745 c -3.28832,1.130961 -9.11261,4.772068 -12.20149,10.557481 -3.64656,-3.061365 -9.16554,-3.542449 -12.04996,-2.547467 l -22.723594,7.834852 0.198807,-21.149954 16.578577,-5.713796 c 8.82552,-3.03899 17.07096,-15.021303 17.16493,-24.926717 l 0.1313,-14.250561 C 133.71752,23.462791 125.639,17.108291 116.81312,20.14779 L 80.58307,32.632659 80.175519,76.76327 46.813809,88.26177 c -2.8236,0.972645 -5.144312,4.336309 -5.171252,7.506776 l -0.661574,71.252324 c -0.02698,3.17012 2.240106,4.95658 5.064208,3.98425 l 63.656259,-21.94032 0.27605,-29.41771 2.9177,-1.01102 c 2.48467,-0.89351 1.99954,-1.18971 1.96843,1.82657 l -0.24983,26.90935 z m 114.02959,-72.167163 -0.008,1.115366 17.03124,-5.869541 c 1.34261,-0.465859 2.44406,-2.101798 2.46168,-3.664074 0.0118,-1.561282 -1.06549,-2.450388 -2.40774,-1.985039 l -4.37826,1.504926 -6.97775,2.408577 -1.76962,0.60502 c -1.98271,0.685257 -3.81561,3.344421 -3.9442,5.667985 z m -104.7249,36.637433 -0.10633,11.53243 c -0.0311,3.14708 1.0633,3.96841 3.91493,2.98502 l 16.51184,-5.68953 0.18639,-20.222347 -16.51311,5.684836 c -2.85163,0.983394 -3.96785,2.563431 -3.99372,5.709591 z m 6.49974,3.0518 c 0.0741,-2.8502 1.13628,-2.71159 3.76323,-3.58817 l 2.80868,-0.96503 -0.046,4.59233 -2.59182,0.89649 c -2.78467,0.96042 -3.91156,1.95055 -3.93409,-0.93562 z"
             id="Shape"
             inkscape:connector-curvature="0"
             style="fill:#eb222c;fill-rule:nonzero" />
          <path
             d="m 176.67644,55.421491 -4.25024,-9.473937 -1.37985,0.419278 -0.0229,2.524815 c -0.014,1.749245 -1.13535,3.37127 -2.68815,3.909028 l -9.41614,3.243177 c -1.55287,0.537326 -2.64898,-0.324341 -2.63409,-2.073739 l 0.25261,-27.121509 c 0.015,-1.743614 1.1354,-3.365919 2.68828,-3.903245 l 9.417,-3.243329 c 1.55193,-0.537606 2.64855,0.324417 2.63274,2.068617 l -0.0356,3.452932 19.03793,-6.563707 0.0389,-4.133719 C 190.4111,4.0927781 182.1894,-2.3771638 172.89318,0.82164444 L 154.67925,7.0989229 C 145.38957,10.301936 136.98864,22.499249 136.89391,32.932268 l -0.26892,28.959143 c -0.0951,10.433527 8.12705,16.903393 17.42235,13.699387 l 6.09039,-2.094004 16.53871,-18.075303"
             id="path32"
             inkscape:connector-curvature="0"
             style="fill:#eb222c;fill-rule:nonzero" />
          <path
             d="m 189.50476,46.992887 c 0.26978,-1.466514 0.52975,-2.051437 0.5432,-3.507591 l 0.0364,-3.681738 -7.57668,2.613783 6.99709,4.575546"
             id="path34"
             inkscape:connector-curvature="0"
             style="fill:#eb222c;fill-rule:nonzero" />
        </g>
        <g
           id="NEC_logo_1963"
           transform="translate(0.987571)"
           style="fill:#eb222c;fill-rule:nonzero">
          <path
             d="m 24.661564,1.0543453 h 18.34209 L 41.787299,8.023874 c 0,0 -0.53991,-3.7782693 -2.797414,-5.2568819 C 38.429448,2.5045512 36.993538,2.5226948 33.395238,2.5226948 l -1.408604,8.3103232 c 2.869073,0.674612 6.050803,-3.6970813 6.050803,-3.6970813 l -1.829939,9.6635803 c 0,0 -1.122522,-4.375543 -4.637983,-4.230394 l -1.559435,8.596039 c 5.120164,0 5.020832,-0.03592 6.257897,-0.791904 1.193629,-0.729227 3.980964,-4.320195 4.08616,-4.823085 l -1.136999,7.202647 h -18.54167 c 0.137452,-0.959229 1.943932,-1.062226 2.752331,-1.612582 l 1.516732,-8.360905 c -0.12224,-0.747371 -1.588757,-0.103547 -1.886385,-0.745171 0.251811,-0.687075 1.726392,-0.2366 2.154507,-0.732526 L 26.751561,2.8186739 C 26.476841,2.1774165 24.661564,1.8632937 24.661564,1.0543453 Z"
             id="Path"
             inkscape:connector-curvature="0" />
          <path
             d="M 59.263994,0.40190845 C 60.07111,2.0670886 60.720064,3.8961111 61.310923,5.7856123 60.189318,6.2206924 58.634282,6.9277434 58.634282,6.9277434 L 55.682006,2.8260047 c -3.075067,-0.2406319 -7.230687,4.339255 -7.54536,7.2009973 -0.368003,3.385707 1.738121,6.729996 5.038243,7.015529 3.437939,0.298911 7.557638,-2.610114 7.557638,-2.610114 L 56.953708,22.75282 C 49.160019,25.52586 43.392917,20.435019 43.097854,14.432417 42.64518,5.2687943 50.93791,0.21827312 59.263994,0.40190845 Z"
             id="path64"
             inkscape:connector-curvature="0" />
          <path
             d="M 16.643555,12.424158 19.30865,0 24.379147,3.1155694 20.325974,5.5061274 16.651435,23.417719 4.7998095,10.079783 3.1765979,18.338608 6.0597824,20.71707 0,23.417719 2.9442131,9.4689484 C 3.2649334,7.3613573 1.80758,6.6356129 0.52469853,6.2003496 L 5.7161534,0.21863966 Z"
             id="path66"
             inkscape:connector-curvature="0" />
        </g>
      </g>
    </g>
  </g>
</svg>
